src/sync.svg

<?xml version="1.0" encoding="UTF-8"?>
<svg version="1.1" viewBox="0 0 512 512" xmlns="http://www.w3.org/2000/svg">
 <!--! Font Awesome Pro 6.4.0 by @fontawesome - https://fontawesome.com License - https://fontawesome.com/license (Commercial License) Copyright 2023 Fonticons, Inc. -->
 <path d="m142.9 142.9c62.2-62.2 162.7-62.5 225.3-1l-41.2 41.1c-6.9 6.9-8.9 17.2-5.2 26.2s12.5 14.8 22.2 14.8h128c13.3 0 24-10.7 24-24v-128c0-9.7-5.8-18.5-14.8-22.2s-19.3-1.7-26.2 5.2l-41.6 41.6c-87.6-86.5-228.7-86.2-315.8 1-24.4 24.4-42 53.1-52.8 83.8-5.9 16.7 2.9 34.9 19.5 40.8s34.9-2.9 40.8-19.5c7.7-21.8 20.2-42.3 37.8-59.8zm-126.9 169.1v128c0 9.7 5.8 18.5 14.8 22.2s19.3 1.7 26.2-5.2l41.6-41.6c87.6 86.5 228.7 86.2 315.8-1 24.4-24.4 42.1-53.1 52.9-83.7 5.9-16.7-2.9-34.9-19.5-40.8s-34.9 2.9-40.8 19.5c-7.7 21.8-20.2 42.3-37.8 59.8-62.2 62.2-162.7 62.5-225.3 1l41.1-41.2c6.9-6.9 8.9-17.2 5.2-26.2s-12.5-14.8-22.2-14.8h-128c-13.3 0-24 10.7-24 24z" fill="#f9f9f9"/>
</svg>

<svg xmlns="http://www.w3.org/2000/svg" viewBox="0 0 512 512"><!--! Font Awesome Pro 6.4.0 by @fontawesome - https://fontawesome.com License - https://fontawesome.com/license (Commercial License) Copyright 2023 Fonticons, Inc.--><path fill="#f9f9f9" d="M142.9 142.9c62.2-62.2 162.7-62.5 225.3-1L327 183c-6.9 6.9-8.9 17.2-5.2 26.2S334.3 224 344 224h128c13.3 0 24-10.7 24-24V72c0-9.7-5.8-18.5-14.8-22.2S461.9 48.1 455 55l-41.6 41.6c-87.6-86.5-228.7-86.2-315.8 1-24.4 24.4-42 53.1-52.8 83.8-5.9 16.7 2.9 34.9 19.5 40.8s34.9-2.9 40.8-19.5c7.7-21.8 20.2-42.3 37.8-59.8zM16 312v128c0 9.7 5.8 18.5 14.8 22.2s19.3 1.7 26.2-5.2l41.6-41.6c87.6 86.5 228.7 86.2 315.8-1 24.4-24.4 42.1-53.1 52.9-83.7 5.9-16.7-2.9-34.9-19.5-40.8s-34.9 2.9-40.8 19.5c-7.7 21.8-20.2 42.3-37.8 59.8-62.2 62.2-162.7 62.5-225.3 1L185 329c6.9-6.9 8.9-17.2 5.2-26.2S177.7 288 168 288H40c-13.3 0-24 10.7-24 24z"/></svg>
